X: 0863
T: WOOED AND MARRIED
B: Oliver Ditson "The Boston Collection of Instrumental Music" 1910 p.86 #3
F: http://conquest.imslp.info/files/imglnks/usimg/8/8f/IMSLP175643-PMLP309456-bostoncollection00bost_bw.pdf
%: 2012 John Chambers <jc:trillian.mit.edu>
M: 9/8
L: 1/8
K: F
f |\
c2B ABG F3 | ABc cfA c2f |\
dcB ABG FGA | D2d de^c d2 :|
f |\
cde fgf edc | ABc cfA c2f |\
cde fgf edc | A3d de^c d2 ||
f |\
cde fgf edc | ABc cfA c2f |\
dcB ABG FGA | D2d de^c d2 |]

%%sep 1 1 500
%%sep 1 1 500
